X:266
T: Johnny Cope
N: O'Farrell's Pocket Companion v.3 (Sky ed. p.123)
N: "Scotch"
M: C
L: 1/8
R: hornpipe
Q: 320
K: Am
E2 | A4 ABcd| e2A2A2 GE|G4 GABc|d2G2 BAGE|
A4 ABcd| e2A2 BAGE| G2g2 edcB| A4 A2 :|
P:2
AB| c3d c2G2| cdef gedc| B2G2d2G2| Bcde {e}d2 cB|
cBcd efga| gedc B2 AB| G2g2 edBc A4 A2 :|
P:3
eg| a4 a2 ga|b2 a2 a2 ge| dega g3a| b2 ab g2 eg|
a4 a2 ga| b2 a2 a2 ge| g2 d2 edcB | A4 A2 :|
P:4
E2|AGAB cBcd| e2 A2 BAGE| GFGA B2g2| dedc B2 AG|
cBcd efga| gedc B2 AB| G2 g2 edcB| A4 A2:|
